dist/images/phone.svg

<?xml version="1.0" encoding="UTF-8" standalone="no"?><svg width="47" height="46" viewBox="0 0 47 46" fill="none" xmlns="http://www.w3.org/2000/svg">
<path fill-rule="evenodd" clip-rule="evenodd" d="M7.10843 0.787109L8.51729 2.20665L17.9814 11.7424L19.3903 13.162L17.9707 14.5708L12.5808 19.9202C12.6747 20.207 12.7752 20.4919 12.8822 20.7748C13.7853 23.1617 15.1361 25.3495 16.8576 27.2223L16.8658 27.2222C17.3762 27.7778 17.9188 28.3053 18.4916 28.8018C20.2677 30.3416 22.2978 31.5523 24.486 32.3828C24.6526 32.446 24.8202 32.5069 24.9887 32.5656L24.9887 32.566C25.4367 32.7224 25.8908 32.8631 26.3504 32.9876C26.6423 33.0667 26.9356 33.1391 27.2301 33.2047L32.0316 27.3214L33.2961 25.7719L34.8456 27.0364L45.2543 35.5311L46.8038 36.7956L45.5392 38.3451C42.7794 41.7269 40.6594 43.4757 38.5733 44.3307C37.026 44.9648 35.4844 45.0573 34.2375 45.1321L34.2303 45.1325L33.2501 45.1702L33.2499 45.1679C29.9189 45.3455 26.5718 44.9934 23.3352 44.1165C22.3392 43.8466 21.3592 43.5286 20.3986 43.1641C16.4905 41.6833 12.9108 39.4375 9.87194 36.5525C6.43339 33.2881 3.77611 29.2896 2.09824 24.8551C0.911582 21.7188 0.236467 18.4217 0.0901779 15.0892L0.0879022 15.0891L0.0303128 14.1099L0.0300472 14.1027L0.0300468 14.1027C-0.0164583 12.8544 -0.0739509 11.3111 0.407127 9.70965C1.05578 7.55038 2.59074 5.27083 5.68889 2.19598L7.10843 0.787109ZM21.8124 39.4223C18.7996 38.2785 16.0046 36.6115 13.5591 34.4915C11.2003 32.4466 9.21252 30.02 7.67506 27.3199L7.66515 27.32C6.9585 26.0795 6.34751 24.7824 5.8394 23.4395C4.87436 20.889 4.29685 18.2166 4.11905 15.5109L4.07602 15.1053L4.07149 15.1053L4.06662 13.9376L4.06563 13.9376L4.11207 12.0567L4.12254 11.3067L4.12572 11.2921L4.13095 11.2921L4.13101 11.2896L4.12634 11.2892C4.15651 11.1512 4.19333 11.0092 4.23801 10.8605C4.53718 9.86456 5.25232 8.53167 7.1205 6.47759L13.7334 13.1406L11.6466 15.2117L11.6451 15.1907L8.10305 18.6409C8.3564 19.8456 8.70289 21.0324 9.14102 22.1903C10.4178 25.5647 12.4399 28.6074 15.0564 31.0915C17.3692 33.2872 20.0938 34.9964 23.0682 36.1232C23.7997 36.4007 24.5459 36.643 25.3044 36.8484C26.4994 37.1722 27.7141 37.402 28.9377 37.5373L32.0282 33.6773L32.007 33.6778L33.866 31.4L41.139 37.3355C39.2758 39.3941 38.0185 40.2351 37.0563 40.6295C36.9126 40.6884 36.7749 40.7388 36.6404 40.7822L36.6395 40.7776L36.6371 40.7779L36.6376 40.7831L36.6233 40.7877L35.8781 40.8708L34.0104 41.0995L34.0103 41.0985L32.8477 41.2069L32.8472 41.2024L32.4394 41.1989C29.9271 41.2781 27.41 41.0127 24.9591 40.4055L24.9591 40.4038C24.3604 40.2558 23.7659 40.0874 23.1766 39.8988C22.7172 39.7517 22.2623 39.5928 21.8124 39.4223Z" fill="#FFEED3"/>
</svg>

<svg width="47" height="46" fill="none" xmlns="http://www.w3.org/2000/svg"><path fill-rule="evenodd" clip-rule="evenodd" d="M7.108.787l1.41 1.42 9.463 9.535 1.41 1.42-1.42 1.409-5.39 5.35a19.97 19.97 0 004.277 7.302h.008a19.962 19.962 0 008.123 5.343 19.984 19.984 0 002.241.639l4.802-5.884 1.264-1.55 1.55 1.265 10.408 8.495 1.55 1.265-1.265 1.55c-2.76 3.38-4.88 5.13-6.966 5.985-1.547.634-3.089.726-4.336.801h-.007l-.98.038v-.002a31.5 31.5 0 01-12.851-2.004A31.5 31.5 0 01.09 15.09H.088l-.058-.98v-.006c-.046-1.249-.104-2.792.377-4.393.649-2.16 2.184-4.44 5.282-7.514l1.42-1.41zm14.704 38.635A27.502 27.502 0 017.675 27.32h-.01A27.503 27.503 0 014.12 15.51l-.043-.405h-.005l-.004-1.167h-.001l.046-1.881.01-.75.004-.015h.005v-.002h-.005c.03-.139.067-.28.112-.43.3-.995 1.014-2.328 2.882-4.382l6.613 6.663-2.086 2.07-.002-.02-3.542 3.45a23.967 23.967 0 0014.965 17.482 23.966 23.966 0 005.87 1.414l3.09-3.86h-.021l1.859-2.277 7.273 5.936c-1.863 2.058-3.12 2.9-4.083 3.294a5.764 5.764 0 01-.416.152v-.004h-.003v.005l-.014.005-.745.083-1.868.228-1.162.108v-.005l-.409-.003a27.478 27.478 0 01-7.48-.793v-.002a27.494 27.494 0 01-3.147-.982z" fill="#FFEED3"/></svg>
